X:36
T: Der Maedchenmoerder (Halewijn - Ulinger)
N: Q0041R
O: Mitteleuropa, Schweiz, Kanton Bern
R: Ballade, Verfuehrung, Mord, Mordversuch bzw. Rache
M: 6/8
L: 1/16
K: G
D2 | B4G2G3GB2 | A3AF2F4
A2 | G4E2E3FG2 | A4F2D4
D2 | G2F2E2D2B,2D2 | G4B2d4
B2 | A2A2A2d2F2F2 | A4B2G4

